dist/static/img/yii/04.svg

<svg width="48" height="48" viewBox="0 0 48 48" fill="none" xmlns="http://www.w3.org/2000/svg">
<g clip-path="url(#clip0_1165_2411)">
<path d="M6.19336 30.9678H7.74175V32.5162H6.19336V30.9678Z" fill="white"/>
<path d="M3.09766 30.9678H4.64604V32.5162H3.09766V30.9678Z" fill="white"/>
<path d="M6.19336 43.3545H7.74175V44.9029H6.19336V43.3545Z" fill="white"/>
<path d="M3.09766 43.3545H4.64604V44.9029H3.09766V43.3545Z" fill="white"/>
<path d="M9.29102 37.1611H10.8394V38.7095H9.29102V37.1611Z" fill="white"/>
<path d="M12.3867 37.1611H13.9351V38.7095H12.3867V37.1611Z" fill="white"/>
<path d="M37.1621 30.9678H38.7105V32.5162H37.1621V30.9678Z" fill="white"/>
<path d="M34.0645 30.9678H35.6128V32.5162H34.0645V30.9678Z" fill="white"/>
<path d="M34.0645 43.3545H35.6128V44.9029H34.0645V43.3545Z" fill="white"/>
<path d="M37.1621 43.3545H38.7105V44.9029H37.1621V43.3545Z" fill="white"/>
<path d="M40.2578 37.1611H41.8062V38.7095H40.2578V37.1611Z" fill="white"/>
<path d="M43.3555 37.1611H44.9039V38.7095H43.3555V37.1611Z" fill="white"/>
<path d="M18.5801 47.9999H29.4188V34.0645H18.5801V47.9999ZM20.1285 35.6128H27.8704V46.4515H20.1285V35.6128Z" fill="white"/>
<path d="M21.6777 43.3545H26.3229V44.9029H21.6777V43.3545Z" fill="white"/>
<path d="M21.6777 40.2578H26.3229V41.8062H21.6777V40.2578Z" fill="white"/>
<path d="M21.6777 37.1611H26.3229V38.7095H21.6777V37.1611Z" fill="white"/>
<path d="M40.2578 9.29004H44.903V10.8384H40.2578V9.29004Z" fill="white"/>
<path d="M40.2578 6.19336H44.903V7.74175H40.2578V6.19336Z" fill="white"/>
<path d="M40.2578 3.09668H44.903V4.64507H40.2578V3.09668Z" fill="white"/>
<path d="M3.09766 9.29004H7.74282V10.8384H3.09766V9.29004Z" fill="white"/>
<path d="M3.09766 6.19336H7.74282V7.74175H3.09766V6.19336Z" fill="white"/>
<path d="M3.09766 3.09668H7.74282V4.64507H3.09766V3.09668Z" fill="white"/>
<path d="M23.9994 15.4834C21.011 15.4834 18.5801 17.9151 18.5801 20.9028C18.5801 23.8904 21.011 26.3221 23.9994 26.3221C26.9878 26.3221 29.4188 23.8904 29.4188 20.9028C29.4188 17.9151 26.9878 15.4834 23.9994 15.4834ZM23.9994 24.7737C21.865 24.7737 20.1285 23.0372 20.1285 20.9028C20.1285 18.7683 21.865 17.0318 23.9994 17.0318C26.1339 17.0318 27.8704 18.7683 27.8704 20.9028C27.8704 23.0372 26.1339 24.7737 23.9994 24.7737Z" fill="white"/>
<path d="M24.0003 18.5811C22.7198 18.5811 21.6777 19.6231 21.6777 20.9036C21.6777 22.1842 22.7198 23.2262 24.0003 23.2262C25.2808 23.2262 26.3229 22.1842 26.3229 20.9036C26.3229 19.6231 25.2808 18.5811 24.0003 18.5811ZM24.0003 21.6778C23.5737 21.6778 23.2261 21.331 23.2261 20.9036C23.2261 20.4763 23.5737 20.1294 24.0003 20.1294C24.4269 20.1294 24.7745 20.4763 24.7745 20.9036C24.7745 21.331 24.4269 21.6778 24.0003 21.6778Z" fill="white"/>
<path d="M21.8105 6.32715L22.9053 7.42186C23.4905 6.83657 24.5094 6.83657 25.0947 7.42186L26.1894 6.32715C25.0196 5.15657 22.9804 5.15657 21.8105 6.32715Z" fill="white"/>
<path d="M27.2848 5.23094L28.3795 4.13623C25.9648 1.72152 22.0358 1.72152 19.6211 4.13623L20.7158 5.23094C22.5266 3.41932 25.4732 3.41932 27.2848 5.23094Z" fill="white"/>
<path d="M43.3548 21.6774V13.9355H48V0H37.1613V13.9355H41.8064V20.129H34.0645V18.7966L32.047 18.1239C31.9347 17.7972 31.8046 17.4805 31.6568 17.1755L32.6067 15.2756L29.6276 12.2965L27.7285 13.2465C27.4235 13.0994 27.1068 12.9685 26.7794 12.8563L26.1066 10.8387H21.8942L21.2214 12.8563C20.8939 12.9685 20.5765 13.0986 20.2723 13.2465L18.3732 12.2965L15.3941 15.2756L16.344 17.1755C16.1969 17.4805 16.0661 17.7972 15.9538 18.1239L13.9355 18.7966V20.129H6.19355V13.9355H10.8387V0H0V13.9355H4.64516V21.6774H7.74194V27.871H2.32258C1.04206 27.871 0 28.913 0 30.1935V33.2903C0 33.8872 0.233032 34.4268 0.603871 34.8387C0.233032 35.2506 0 35.7902 0 36.3871V39.4839C0 40.0808 0.233032 40.6204 0.603871 41.0323C0.233032 41.4441 0 41.9837 0 42.5806V45.6774C0 46.9579 1.04206 48 2.32258 48H14.7097C15.9902 48 17.0323 46.9579 17.0323 45.6774V42.5806C17.0323 41.9837 16.7992 41.4441 16.4284 41.0323C16.8 40.6204 17.0323 40.0808 17.0323 39.4839V36.3871C17.0323 35.7902 16.7992 35.2506 16.4284 34.8387C16.8 34.4268 17.0323 33.8872 17.0323 33.2903V30.1935C17.0323 28.913 15.9902 27.871 14.7097 27.871H9.29032V21.6774H13.9355V23.0098L15.953 23.6826C16.0653 24.0093 16.1954 24.3259 16.3432 24.631L15.3933 26.5308L18.3724 29.5099L20.2715 28.56C20.5765 28.7071 20.8939 28.8379 21.2206 28.9502L21.8934 30.9677H26.1058L26.7786 28.9502C27.1053 28.8379 27.4235 28.7079 27.7277 28.56L29.6268 29.5099L32.6059 26.5308L31.656 24.631C31.8031 24.3259 31.9339 24.0093 32.0462 23.6826L34.0645 23.0098V21.6774H38.7097V27.871H33.2903C32.0098 27.871 30.9677 28.913 30.9677 30.1935V33.2903C30.9677 33.8872 31.2008 34.4268 31.5716 34.8387C31.2 35.2506 30.9677 35.7902 30.9677 36.3871V39.4839C30.9677 40.0808 31.2008 40.6204 31.5716 41.0323C31.2 41.4441 30.9677 41.9837 30.9677 42.5806V45.6774C30.9677 46.9579 32.0098 48 33.2903 48H45.6774C46.9579 48 48 46.9579 48 45.6774V42.5806C48 41.9837 47.767 41.4441 47.3961 41.0323C47.7677 40.6204 48 40.0808 48 39.4839V36.3871C48 35.7902 47.767 35.2506 47.3961 34.8387C47.7677 34.4268 48 33.8872 48 33.2903V30.1935C48 28.913 46.9579 27.871 45.6774 27.871H40.2581V21.6774H43.3548ZM38.7097 1.54839H46.4516V12.3871H38.7097V1.54839ZM1.54839 1.54839H9.29032V12.3871H1.54839V1.54839ZM15.4839 36.3871V39.4839C15.4839 39.9112 15.1363 40.2581 14.7097 40.2581H2.32258C1.896 40.2581 1.54839 39.9112 1.54839 39.4839V36.3871C1.54839 35.9597 1.896 35.6129 2.32258 35.6129H14.7097C15.1363 35.6129 15.4839 35.9597 15.4839 36.3871ZM15.4839 45.6774C15.4839 46.1048 15.1363 46.4516 14.7097 46.4516H2.32258C1.896 46.4516 1.54839 46.1048 1.54839 45.6774V42.5806C1.54839 42.1533 1.896 41.8064 2.32258 41.8064H14.7097C15.1363 41.8064 15.4839 42.1533 15.4839 42.5806V45.6774ZM15.4839 30.1935V33.2903C15.4839 33.7177 15.1363 34.0645 14.7097 34.0645H2.32258C1.896 34.0645 1.54839 33.7177 1.54839 33.2903V30.1935C1.54839 29.7662 1.896 29.4194 2.32258 29.4194H14.7097C15.1363 29.4194 15.4839 29.7662 15.4839 30.1935ZM32.5161 21.8934L30.7982 22.4655L30.6852 22.855C30.5404 23.3505 30.3468 23.8204 30.1099 24.2524L29.9148 24.6077L30.7223 26.225L29.3218 27.6255L27.7053 26.8173L27.3492 27.0132C26.9172 27.2508 26.4472 27.4444 25.9525 27.5884L25.5631 27.7014L24.9902 29.4194H23.009L22.4369 27.7014L22.0475 27.5884C21.552 27.4436 21.0821 27.2501 20.6508 27.0132L20.2947 26.8173L18.6782 27.6255L17.2777 26.225L18.0852 24.6077L17.8901 24.2524C17.6524 23.8204 17.4588 23.3505 17.3148 22.855L17.2018 22.4655L15.4839 21.8934V19.9123L17.2018 19.3401L17.3148 18.9507C17.4596 18.4552 17.6532 17.9853 17.8901 17.5533L18.0852 17.1979L17.2777 15.5806L18.6782 14.1801L20.2947 14.9884L20.6501 14.7925C21.0813 14.5548 21.5512 14.3613 22.0467 14.2173L22.4361 14.1043L23.0098 12.3871H24.991L25.5639 14.105L25.9533 14.2181C26.4488 14.3628 26.9187 14.5564 27.3499 14.7933L27.7053 14.9892L29.3218 14.1809L30.7223 15.5814L29.9148 17.1987L30.1099 17.5541C30.3476 17.9861 30.5412 18.456 30.6852 18.9515L30.7982 19.3409L32.5161 19.913V21.8934ZM46.4516 36.3871V39.4839C46.4516 39.9112 46.104 40.2581 45.6774 40.2581H33.2903C32.8637 40.2581 32.5161 39.9112 32.5161 39.4839V36.3871C32.5161 35.9597 32.8637 35.6129 33.2903 35.6129H45.6774C46.104 35.6129 46.4516 35.9597 46.4516 36.3871ZM46.4516 45.6774C46.4516 46.1048 46.104 46.4516 45.6774 46.4516H33.2903C32.8637 46.4516 32.5161 46.1048 32.5161 45.6774V42.5806C32.5161 42.1533 32.8637 41.8064 33.2903 41.8064H45.6774C46.104 41.8064 46.4516 42.1533 46.4516 42.5806V45.6774ZM46.4516 30.1935V33.2903C46.4516 33.7177 46.104 34.0645 45.6774 34.0645H33.2903C32.8637 34.0645 32.5161 33.7177 32.5161 33.2903V30.1935C32.5161 29.7662 32.8637 29.4194 33.2903 29.4194H45.6774C46.104 29.4194 46.4516 29.7662 46.4516 30.1935Z" fill="white"/>
</g>
<defs>
<clipPath id="clip0_1165_2411">
<rect width="48" height="48" fill="white"/>
</clipPath>
</defs>
</svg>

<svg width="48" height="48" viewBox="0 0 48 48" fill="none" xmlns="http://www.w3.org/2000/svg"><g clip-path="url(#clip0_1165_2411)" fill="#fff"><path d="M6.193 30.968h1.549v1.548H6.193v-1.548zm-3.095 0h1.548v1.548H3.098v-1.548zm3.095 12.387h1.549v1.548H6.193v-1.548zm-3.095 0h1.548v1.548H3.098v-1.548zm6.193-6.194h1.548v1.548H9.291v-1.548zm3.096 0h1.548v1.548h-1.548v-1.548zm24.775-6.193h1.549v1.548h-1.549v-1.548zm-3.097 0h1.548v1.548h-1.548v-1.548zm0 12.387h1.548v1.548h-1.548v-1.548zm3.097 0h1.549v1.548h-1.549v-1.548zm3.096-6.194h1.548v1.548h-1.548v-1.548zm3.097 0h1.549v1.548h-1.549v-1.548zM18.58 48h10.84V34.065H18.58V48zm1.549-12.387h7.741v10.839h-7.742v-10.84z"/><path d="M21.678 43.355h4.645v1.548h-4.645v-1.548zm0-3.097h4.645v1.548h-4.645v-1.548zm0-3.097h4.645v1.548h-4.645v-1.548zM40.258 9.29h4.645v1.548h-4.645V9.29zm0-3.097h4.645v1.549h-4.645V6.193zm0-3.096h4.645v1.548h-4.645V3.097zM3.098 9.29h4.645v1.548H3.098V9.29zm0-3.097h4.645v1.549H3.098V6.193zm0-3.096h4.645v1.548H3.098V3.097zM24 15.483a5.426 5.426 0 00-5.42 5.42 5.427 5.427 0 005.42 5.42 5.426 5.426 0 005.419-5.42 5.426 5.426 0 00-5.42-5.42zm0 9.29a3.875 3.875 0 01-3.872-3.87A3.875 3.875 0 0124 17.032a3.875 3.875 0 013.871 3.87A3.875 3.875 0 0124 24.775z"/><path d="M24 18.581a2.325 2.325 0 00-2.322 2.323A2.325 2.325 0 0024 23.226a2.325 2.325 0 002.323-2.322A2.325 2.325 0 0024 18.58zm0 3.097a.775.775 0 11.002-1.55.775.775 0 01-.002 1.55zM21.81 6.327l1.095 1.095c.585-.585 1.604-.585 2.19 0l1.094-1.095c-1.17-1.17-3.209-1.17-4.378 0z"/><path d="M27.285 5.23l1.095-1.094a6.2 6.2 0 00-8.759 0l1.095 1.095a4.65 4.65 0 016.569 0z"/><path d="M43.355 21.677v-7.742H48V0H37.161v13.935h4.645v6.194h-7.741v-1.332l-2.018-.673a8.54 8.54 0 00-.39-.948l.95-1.9-2.98-2.98-1.898.95a8.612 8.612 0 00-.95-.39l-.672-2.017h-4.213l-.673 2.017a8.39 8.39 0 00-.949.39l-1.899-.95-2.979 2.98.95 1.9a8.677 8.677 0 00-.39.948l-2.019.673v1.332H6.194v-6.194h4.645V0H0v13.935h4.645v7.742h3.097v6.194h-5.42A2.325 2.325 0 000 30.194v3.096c0 .597.233 1.137.604 1.549A2.304 2.304 0 000 36.387v3.097c0 .597.233 1.136.604 1.548A2.309 2.309 0 000 42.581v3.096A2.325 2.325 0 002.323 48H14.71a2.325 2.325 0 002.322-2.323v-3.096c0-.597-.233-1.137-.604-1.549.372-.412.604-.951.604-1.548v-3.097c0-.597-.233-1.136-.604-1.548.372-.412.604-.952.604-1.549v-3.096a2.325 2.325 0 00-2.322-2.323H9.29v-6.194h4.646v1.333l2.017.673c.112.326.242.643.39.948l-.95 1.9 2.98 2.979 1.898-.95c.305.147.623.278.95.39l.672 2.018h4.213l.673-2.018a8.47 8.47 0 00.949-.39l1.899.95 2.979-2.98-.95-1.899c.147-.305.278-.622.39-.948l2.019-.673v-1.333h4.645v6.194h-5.42a2.325 2.325 0 00-2.322 2.323v3.096c0 .597.233 1.137.604 1.549a2.304 2.304 0 00-.604 1.548v3.097c0 .597.233 1.136.604 1.548a2.304 2.304 0 00-.604 1.549v3.096A2.325 2.325 0 0033.29 48h12.387A2.325 2.325 0 0048 45.677v-3.096c0-.597-.233-1.137-.604-1.549.372-.412.604-.951.604-1.548v-3.097c0-.597-.233-1.136-.604-1.548.372-.412.604-.952.604-1.549v-3.096a2.325 2.325 0 00-2.323-2.323h-5.419v-6.194h3.097zM38.71 1.548h7.742v10.84H38.71V1.547zm-37.162 0H9.29v10.84H1.548V1.547zm13.936 34.84v3.096a.775.775 0 01-.774.774H2.323a.775.775 0 01-.775-.774v-3.097c0-.427.348-.774.775-.774H14.71c.426 0 .774.347.774.774zm0 9.29a.775.775 0 01-.774.774H2.323a.775.775 0 01-.775-.775v-3.096c0-.428.348-.775.775-.775H14.71c.426 0 .774.347.774.775v3.096zm0-15.484v3.096a.775.775 0 01-.774.775H2.323a.775.775 0 01-.775-.775v-3.096c0-.428.348-.775.775-.775H14.71c.426 0 .774.347.774.774zm17.032-8.3l-1.718.572-.113.389a6.982 6.982 0 01-.575 1.397l-.195.356.807 1.617-1.4 1.4-1.617-.808-.356.196a6.907 6.907 0 01-1.396.575l-.39.113-.573 1.718h-1.98l-.572-1.718-.39-.113a6.958 6.958 0 01-1.396-.575l-.356-.196-1.617.808-1.4-1.4.807-1.617-.195-.356a6.89 6.89 0 01-.575-1.397l-.113-.39-1.718-.572v-1.98l1.718-.573.113-.39c.145-.495.338-.965.575-1.397l.195-.355-.807-1.617 1.4-1.4 1.617.807.355-.195a6.863 6.863 0 011.397-.576l.39-.113.573-1.717h1.981l.573 1.718.39.113a6.95 6.95 0 011.396.575l.355.196 1.617-.808 1.4 1.4-.807 1.618.195.355c.238.432.431.902.575 1.398l.113.389 1.718.572v1.98zm13.936 14.493v3.097a.775.775 0 01-.775.774H33.29a.775.775 0 01-.774-.774v-3.097c0-.427.348-.774.774-.774h12.387c.427 0 .775.347.775.774zm0 9.29a.775.775 0 01-.775.775H33.29a.775.775 0 01-.774-.775v-3.096c0-.428.348-.775.774-.775h12.387c.427 0 .775.347.775.775v3.096zm0-15.483v3.096a.775.775 0 01-.775.775H33.29a.775.775 0 01-.774-.775v-3.096c0-.428.348-.775.774-.775h12.387c.427 0 .775.347.775.774z"/></g><defs><clipPath id="clip0_1165_2411"><path fill="#fff" d="M0 0h48v48H0z"/></clipPath></defs></svg>
